assets/icons/archive-2.svg

<svg width="20" height="20" viewBox="0 0 20 20" fill="none" xmlns="http://www.w3.org/2000/svg">
<path d="M3.125 5.9375V15.9375C3.12624 16.3515 3.29125 16.7482 3.58401 17.041C3.87677 17.3337 4.27348 17.4988 4.6875 17.5H15.3125C15.7265 17.4988 16.1232 17.3337 16.416 17.041C16.7087 16.7482 16.8738 16.3515 16.875 15.9375V5.9375M12.5 11.875L10 14.375L7.5 11.875M10 13.5113V8.75M2.96875 2.5H17.0312C17.6353 2.5 18.125 2.98969 18.125 3.59375V4.53125C18.125 5.13531 17.6353 5.625 17.0312 5.625H2.96875C2.36469 5.625 1.875 5.13531 1.875 4.53125V3.59375C1.875 2.98969 2.36469 2.5 2.96875 2.5Z" stroke="currentColor" stroke-width="1.3" stroke-linecap="round" stroke-linejoin="round"/>
</svg>

<svg xmlns="http://www.w3.org/2000/svg" width="20" height="20" fill="none" viewBox="0 0 20 20"><path stroke="currentColor" stroke-linecap="round" stroke-linejoin="round" stroke-width="1.3" d="M3.125 5.938v10A1.567 1.567 0 0 0 4.688 17.5h10.625a1.567 1.567 0 0 0 1.562-1.562v-10M12.5 11.875l-2.5 2.5-2.5-2.5m2.5 1.636V8.75M2.969 2.5H17.03c.604 0 1.094.49 1.094 1.094v.937c0 .604-.49 1.094-1.094 1.094H2.97c-.604 0-1.094-.49-1.094-1.094v-.937c0-.604.49-1.094 1.094-1.094"/></svg>
